!!!OTL: 72. Ringel, Ringel, Rosenkranz!
!!!ARE: Europa, Mitteleuropa, Deutschland, Darmstadt
!!!SCT: K2072
!!!TXL: @@DE
!!!YEM: Copyright 1995, estate of Helmut Schaffrath.
**kern	**text
*clefG2	*
*M2/4	*
*k[b-]	*
*F:	*
=1	=1
{8cc	Rin-
8cc	-gel,
8dd	Rin-
8dd	-gel,
=2	=2
8cc	Ro-
8cc	-ſen-
4a}	-kranʒ!
=3	=3
{8cc	klei-
8cc	-ne
4a	Waſch,
=4	=4
8cc	gro-
8cc	-ße
4a}	Waſch,
=5	=5
{8cc	Schöppche
8cc	.
4a	Wein,
=6	=6
16cc	Bret-
16cc	-ʒel-
8cc	-chen
4a}	drein.
=7||	=7||
{8cc	Ki-
8cc	-ke-
8cc	-ri-
8cc	-ki-
=8	=8
4ff	-ki?
4r}	.
==	==
!!!AGN: Kinder - Lied, Reigen, Tanz - Spiel
!!!ONB: ESAC (Essen Associative Code) Database: KINDER
!!!AMT: simple duple
!!!AIN: vox
!!!EED: Helmut Schaffrath
!!!EEV: 1.0
!!Aus Darmstadt: Foelfing Nr. 93.
!!!GTL: Zweites Buch. Kinderspiel: 2. Reigen und Tanzspiele. / A. Ringelreihen mit Niederfallen.
!!!URL-scan: https://archive.org/details/DeutschesKinderliedUndKinderspiel/page/443/mode/1up
!!!ENC: Anna Maria Matuszewska
!!!EEV: 2024/02/09
*-	*-
